public/images/icons/adherent_menu/default/informations.svg

<svg xmlns="http://www.w3.org/2000/svg" width="20" height="20" viewBox="0 0 20 20"><path fill="#7B889B" d="M10,11 C15.303571,11 19,13.5714289 19,18 L19,18 L19,19 L1,19 L1,18 C1,13.5714289 4.69642905,11 10,11 Z M10,13 C6.16964244,13 3.62998072,14.4639261 3.10224714,16.9808816 L3.10224714,16.9808816 L3.098,17 L16.901,17 L16.8490162,16.7731315 C16.2440062,14.4465785 13.854497,13.073683 10.292085,13.0028805 L10.292085,13.0028805 Z M10,1 C12.4852847,1 14.5,3.01471525 14.5,5.5 C14.5,7.98528475 12.4852847,10 10,10 C7.51471525,10 5.5,7.98528475 5.5,5.5 C5.5,3.01471525 7.51471525,1 10,1 Z M10,3 C8.61928475,3 7.5,4.11928475 7.5,5.5 C7.5,6.88071525 8.61928475,8 10,8 C11.3807153,8 12.5,6.88071525 12.5,5.5 C12.5,4.11928475 11.3807153,3 10,3 Z"/></svg>

<svg viewBox="0 0 20 20"><path fill="#7B889B" d="M10 11c5.304 0 9 2.571 9 7v1H1v-1c0-4.429 3.696-7 9-7zm0 2c-3.83 0-6.37 1.464-6.898 3.98l-.004.02h13.803l-.052-.227c-.605-2.326-2.995-3.7-6.557-3.77zm0-12a4.5 4.5 0 110 9 4.5 4.5 0 010-9zm0 2a2.5 2.5 0 100 5 2.5 2.5 0 000-5z"/></svg>
